X: 43065
T: Wind That Shakes The Barley, The
R: reel
M: 4/4
K: Dmajor
d B||A2FA ADFD|BEGE B2dB|A2FA A2de|fded BAdB|
A2FA ADF/E/D|BEGE BEdB|A2FA A2de|fded BAde||
f2ed g2eg|fedf e2de|fdfd a3b|afed BAde|
f2ed g2eg|fedf edBA|defg a2ab|afed BAdB||

